images/CustomTraining.svg

<svg id="Layer_1" data-name="Layer 1" xmlns="http://www.w3.org/2000/svg" viewBox="0 0 216 216"><defs><style>.cls-1{fill:#22366a}</style></defs><path class="cls-1" d="M78.78 127.8v45.66H16.17v-57.85c0-10.69 7.07-17.76 17.75-17.76 11.94 0 23.87.08 35.76-.07a11 11 0 018 2.65Q88.06 110 98.3 119.88c2.69 2.61 5.12 5.52 8.32 9 1.95-2.21 3.69-4.49 5.71-6.52 6.26-6.26 12.6-12.44 18.93-18.63a8.48 8.48 0 0114.44 5.16c.33 3.13-1.18 5.52-3.35 7.66-8.22 8.14-16.39 16.35-24.57 24.52-1.88 1.85-3.68 3.76-5.6 5.57a9.38 9.38 0 01-12.89.22c-6.29-5.81-12.52-11.77-18.78-17.66-.4-.37-.88-.74-1.73-1.4zM50.24 42.54a24.11 24.11 0 11-24.35 23.71 24 24 0 0124.35-23.71z"/><path class="cls-1" d="M193.48 42.89h-89.94a6.36 6.36 0 00-6.36 6.35v62.94l5.71 5.42V49.24a.65.65 0 01.65-.64h89.94a.65.65 0 01.65.64v117.32a.65.65 0 01-.65.65h-78.21l-.23.23-.24-.23h-11.26a.65.65 0 01-.65-.65v-10.67l-5.71-5.42v16.09a6.35 6.35 0 006.36 6.35h89.94a6.35 6.35 0 006.35-6.35V49.24a6.35 6.35 0 00-6.35-6.35z"/></svg>

<svg id="Layer_1" data-name="Layer 1" xmlns="http://www.w3.org/2000/svg" viewBox="0 0 216 216"><defs><style>.cls-1{fill:#22366a;}</style></defs><title>Artboard 3 copy 4</title><path class="cls-1" d="M78.78,127.8v45.66H16.17V115.61c0-10.69,7.07-17.76,17.75-17.76,11.94,0,23.87.08,35.76-.07a11,11,0,0,1,8,2.65Q88.06,110,98.3,119.88c2.69,2.61,5.12,5.52,8.32,9,1.95-2.21,3.69-4.49,5.71-6.52,6.26-6.26,12.6-12.44,18.93-18.63a8.48,8.48,0,0,1,14.44,5.16c.33,3.13-1.18,5.52-3.35,7.66-8.22,8.14-16.39,16.35-24.57,24.52-1.88,1.85-3.68,3.76-5.6,5.57a9.38,9.38,0,0,1-12.89.22C93,141.05,86.77,135.09,80.51,129.2,80.11,128.83,79.63,128.46,78.78,127.8Z"/><path class="cls-1" d="M50.24,42.54A24.11,24.11,0,1,1,25.89,66.25,24,24,0,0,1,50.24,42.54Z"/><path class="cls-1" d="M193.48,42.89H103.54a6.36,6.36,0,0,0-6.36,6.35v62.94l5.71,5.42V49.24a.65.65,0,0,1,.65-.64h89.94a.65.65,0,0,1,.65.64V166.56a.65.65,0,0,1-.65.65H115.27l-.23.23-.24-.23H103.54a.65.65,0,0,1-.65-.65V155.89l-5.71-5.42v16.09a6.35,6.35,0,0,0,6.36,6.35h89.94a6.35,6.35,0,0,0,6.35-6.35V49.24A6.35,6.35,0,0,0,193.48,42.89Z"/></svg>
